X:955
T:I Do Not Incline
B:O'Neill's 955
Z:Transcribed by Dan G. Petersen, dangp@post6.tele.dk
M:6/8
L:1/8
K:G
(G/E/)|DB,D G2A|B>cB A>GA|BGE EGA|BE E2(G/E/)|
DB,D G2A|B>cB AGA|BGE DEF|GAG G2:|
(G/A/)|BGG AFF|GEE FDD|E>FE E2(G/A/)|BGE E2(G/E/)|
DB,D G2A|B>cB A>GA|BGE DEF|GAG G2:|


